src/assets/images/uk_flag.svg

<svg xmlns="http://www.w3.org/2000/svg" width="22" height="22" viewBox="0 0 22 22" fill="none">
  <path d="M22 11C22 17.0773 17.0773 22 11 22C4.92268 22 0 17.0773 0 11C0 4.92268 4.92268 0 11 0C17.0773 0 22 4.92268 22 11Z" fill="#6A8090"/>
  <path d="M19.9992 4.6847C19.2632 3.64463 18.3598 2.73678 17.3153 2.0008L13.5385 5.77765V0.308494C12.7232 0.114583 11.877 0 11 0C10.123 0 9.27684 0.114583 8.46154 0.308494V5.77765L4.6847 2.0008C3.64463 2.73678 2.73678 3.64022 2.0008 4.6847L5.77765 8.46154H0.308494C0.114583 9.27684 0 10.123 0 11C0 11.877 0.114583 12.7232 0.308494 13.5385H5.77765L2.0008 17.3153C2.73678 18.3554 3.64022 19.2632 4.6847 19.9992L8.46154 16.2224V21.6915C9.27684 21.8854 10.123 22 11 22C11.877 22 12.7232 21.8854 13.5385 21.6915V16.2224L17.3153 19.9992C18.3554 19.2632 19.2632 18.3598 19.9992 17.3153L16.2224 13.5385H21.6915C21.8854 12.7232 22 11.877 22 11C22 10.123 21.8854 9.27684 21.6915 8.46154H16.2224L19.9992 4.6847Z" fill="white"/>
  <path d="M12.6923 9.30769H21.859C21.9427 9.86298 22 10.4227 22 11C22 11.5773 21.9427 12.137 21.859 12.6923H12.6923V21.859C12.137 21.9427 11.5773 22 11 22C10.4227 22 9.86298 21.9427 9.30769 21.859V12.6923H0.141026C0.0572914 12.137 0 11.5773 0 11C0 10.4227 0.0572914 9.86298 0.141026 9.30769H9.30769V0.141026C9.86298 0.0572914 10.4227 0 11 0C11.5773 0 12.137 0.0572914 12.6923 0.141026V9.30769ZM18.8754 18.6727C19.1354 18.4038 19.3866 18.1174 19.6202 17.8177L15.3409 13.5385H13.7412L18.8754 18.6727ZM18.6727 3.1246C18.4038 2.86458 18.1174 2.61338 17.8177 2.37981L13.5385 6.65905V8.25881L18.6727 3.1246ZM3.1246 3.32732C2.86458 3.59615 2.61338 3.88261 2.37981 4.18229L6.65905 8.46154H8.25881L3.1246 3.32732ZM3.32732 18.8754C3.59615 19.1354 3.88261 19.3866 4.18229 19.6202L8.46154 15.3409V13.7412L3.32732 18.8754Z" fill="#6A8090"/>
  <path d="M11 0.211538C16.9495 0.211538 21.7885 5.05048 21.7885 11C21.7885 16.9495 16.9495 21.7885 11 21.7885C5.05048 21.7885 0.211538 16.9495 0.211538 11C0.211538 5.05048 5.05048 0.211538 11 0.211538ZM11 0C4.92268 0 0 4.92268 0 11C0 17.0773 4.92268 22 11 22C17.0773 22 22 17.0773 22 11C22 4.92268 17.0773 0 11 0Z" fill="white"/>
</svg>

<svg xmlns="http://www.w3.org/2000/svg" width="22" height="22" fill="none"><path fill="#6A8090" d="M22 11c0 6.077-4.923 11-11 11S0 17.077 0 11 4.923 0 11 0s11 4.923 11 11"/><path fill="#fff" d="M20 4.685A11.2 11.2 0 0 0 17.314 2l-3.777 3.777V.308A11 11 0 0 0 11 0c-.877 0-1.723.115-2.538.308v5.47L4.685 2A11.2 11.2 0 0 0 2 4.685l3.777 3.777H.308A11 11 0 0 0 0 11c0 .877.115 1.723.308 2.539h5.47L2 17.315A11.2 11.2 0 0 0 4.685 20l3.777-3.777v5.47c.815.193 1.661.308 2.538.308s1.723-.115 2.539-.308v-5.47L17.315 20A11.2 11.2 0 0 0 20 17.315l-3.777-3.777h5.47c.193-.815.308-1.661.308-2.538s-.115-1.723-.308-2.538h-5.47z"/><path fill="#6A8090" d="M12.692 9.308h9.167c.084.555.141 1.115.141 1.692s-.057 1.137-.141 1.692h-9.167v9.167c-.555.084-1.115.141-1.692.141s-1.137-.057-1.692-.141v-9.167H.14A11 11 0 0 1 0 11c0-.577.057-1.137.141-1.692h9.167V.14A11 11 0 0 1 11 0c.577 0 1.137.057 1.692.141zm6.183 9.365c.26-.27.512-.556.745-.855l-4.28-4.28h-1.599zm-.202-15.548c-.27-.26-.556-.512-.855-.745l-4.28 4.279v1.6zm-15.548.202c-.26.27-.512.556-.745.855l4.279 4.28h1.6zm.202 15.548c.27.26.556.512.855.745l4.28-4.28v-1.599z"/><path fill="#fff" d="M11 .212C16.95.212 21.789 5.05 21.789 11S16.949 21.789 11 21.789C5.05 21.789.212 16.949.212 11 .212 5.05 5.05.212 11 .212M11 0C4.923 0 0 4.923 0 11s4.923 11 11 11 11-4.923 11-11S17.077 0 11 0"/></svg>
